X:1
T:O quam metuendus est - Victoria
T:#
%%score [ 1 2 3 4 ]
L:1/8
Q:1/4=200
M:none
K:C
V:1 treble nm="Soprano" snm="S"
V:2 treble nm="Alto" snm="A"
V:3 treble-8 nm="Tenor" snm="T"
V:4 bass nm="Bass" snm="B"
V:1
"^Tomás Luis de Victoria\n(1548-1611)""^O quam metuendus est" (E16 | A16) | ^F8 G8- | G4 G4 A8- | %4
w: O||quam me\-|* tu- en\-|
 A4 ^G4 (A6 =G^F | E4) A4 (^F6 G2 | A4) (d6 c2 B2 A2) |[M:4/2] (G2 F2 E8) F4 | E12 E4 | %9
w: * dus est, * *|* O quam *|* me\- * * *|* * * tu-|en- dus|
 E4 (A6 G2 F2 E2 | D4) E4 F8 | E16- | E8 z8 | z16 | E8 E4 E4 | D4 E4 F4 E4 | E8 z4 A4 | %17
w: est lo\- * * *|* cus i-|ste!|||Ve- re non|est hic a- li-|ud, ve-|
 A4 G4 (E2 F2 G2 A2 | B6 c2 d4) G4 | (A4 G2 F2 E4) F4 | E16- | E16 | E16 | z8 z4 E4- | %24
w: re non est * * *|* * * hic|a\- * * * li-|ud,|||ni\-|
 E4 ^F4 G4 E4 | A8 G8 | z8 z4 C4 | D8 E4 C4 | F8 D4 G4 | A4 F4 E4 (E4- | E4 D4 E8) | E16 | %32
w: * si do- mus|De- i,|ni-|si do- mus|De- i, ni-|si do- mus De\-||i,|
 z4 A4 G4 E4 | F8 E4 e4 | d4 B4 c8 | B4 c4 B4 G4 | (A2 B2 c6 B2 A4) | ^G4 B4 c4 B4- | %38
w: et por- ta|coe- li, et|por- ta coe-|li, et por- ta|coe\- * * * *|li, et por- ta|
 B4[Q:1/4=197] (A8[Q:1/4=192] ^G4) |[Q:1/4=185] A16- |[Q:1/4=175] A16 |[Q:1/4=170] A16 |] %42
w: * coe\- *|li.|||
V:2
 z8 (A,8- | A,8 D8- | D8) B,8 | C12 D4 | C4 B,4 ^C8- | C8 z8 | (A,8 D8) |[M:4/2] E4 C8 A,4 | %8
w: O||* quam|me- tu-|en- dus est,||O *|quam me- tu-|
 (C4 B,2 A,2 B,4) B,4 | ^C8 (D6 E2 | F4) E8 (D4- | D4 ^C2 B,2) C8 | z4 E4 E4 E4 | %13
w: en\- * * * dus|est lo\- *|* cus i\-|* * * ste!|Ve- re non|
 D4 E4 (F4 E2 D2) | (^C4 D8) C4 | D4 !courtesy!=C4 C4 C4 | B,4 ^C4 (D4 =C2 B,2 | %17
w: est hic a\- * *|* * li-|ud, ve- re non|est hic a\- * *|
 A,4) B,4 (C4 B,2 A,2 | ^G,8) z8 | z16 | B,8 B,4 B,4 | A,4 B,4 (C4 B,2 A,2 | ^G,4) A,4 E,4 B,4 | %23
w: * li- ud * *|||ve- re non|est hic a\- * *|* li- ud, ni-|
 C4 D4 B,8 | (C6 A,2 B,4 C4) | A,8 z4 C4- | C4 D4 E4 C4 | F8 E8 | z4 A,4 B,4 C4 | A,4 (D8 C2 B,2 | %30
w: si do- mus|De\- * * *|i, ni\-|* si do- mus|De- i,|ni- si do-|mus De\- * *|
 A,12 ^G,4 | A,8) E,4 E4 | C4 D4 E8 | A,4 A4 G4 E4 | F4 (E6 D2 E2 F2) | G16 | z4 E4 C4 D4 | E16- | %38
w: |* i, et|por- ta coe-|li, et por- ta|coe- li, * * *||et por- ta|coe\-|
 E16 | E8 z4 ^C4 | D4 E4 F8 | E16 |] %42
w: |li, et|por- ta coe-|li.|
V:3
 z16 | z16 | z16 | z16 | (E16 | A16) | ^F8 G8- |[M:4/2][K:treble-8] G4 G4 (A8- | %8
w: ||||O||quam me\-|* tu- en\-|
 A4 ^G2 ^F2 G4) G4 | A8 A8- | A4 A4 A8 | A16 | z16 | z16 | z16 | z4 A4 A4 A4 | G4 A4 (_B4 A2 G2 | %17
w: * * * * dus|est lo\-|* cus i-|ste!||||Ve- re non|est hic a\- * *|
 F4) G4 (A4 G2 F2 | E4) B4 B4 B4 | A4 B4 (c4 B2 A2 | ^G4 A8) G4 | %21
w: * li- ud, * *|* ve- re, non|est hic a\- * *|* * li-|
 (A4 !courtesy!=G2 F2 E2 F2 G2 A2 | B4 c4 B8) | z16 | z8 E8- | E4 ^F4 G4 E4 | A8 G4 A4- | %27
w: ud, * * * * * *|||ni\-|* si do- mus|De- i, ni\-|
 A4 B4 c4 A4 | d4 A4 z4 c4- | c4 d4 e4 A4 | (c4 B2 A2 B8) | A4 c4 B4 G4 | A8 B4 G4 | %33
w: * si do- mus|De- i, ni\-|* si do- mus|De\- * * *|i, et por- ta|coe- li, et|
 (d6 c2 B4 A4- | A4) ^G4 A8 | E4 e4 d4 B4 | (c6 B2 A8) | B4 ^G4 A4 B4 | (c6 BA B8) | A4 ^c4 d4 e4 | %40
w: por\- * * *|* ta coe-|li, et por- ta|coe\- * *|li, et por- ta|coe\- * * *|li, et por- ta|
 (f4 e6 d2 d4- | d4 ^c2 B2) c8 |] %42
w: coe\- * * *|* * * li.|
V:4
 z16 | z16 | z16 | z16 | z8 (A,,8- | A,,8 D,8- | D,8) B,,8 |[M:4/2] C,12 D,4 | E,12 E,4 | %9
w: ||||O||* quam|me- tu-|en- dus|
 A,,8 D,8- | D,4 ^C,4 D,8 | A,,8 z4 A,4 | A,4 A,4 G,4 A,4 | (_B,4 A,2 G,2 F,4) G,4 | A,16 | z16 | %16
w: est lo\-|* cus i-|ste! Ve-|re non est hic|a\- * * * li-|ud,||
 z16 | z8 z4 E,4 | E,4 E,4 D,4 E,4 | (F,4 E,2 D,2 C,4) D,4 | E,16 | z16 | z8 z4 E,4- | %23
w: |ve-|re non est hic|a\- * * * li-|ud,||ni\-|
 E,4 ^F,4 G,4 E,4 | A,8 G,4 C,4- | C,4 D,4 E,4 C,4 | (F,8 E,4 F,4 | D,8) A,,8 | z4 D,8 E,4 | %29
w: * si do- mus|De- i, ni\-|* si do- mus|De\- * *|* i,|ni- si|
 F,4 D,4 (A,6 G,2 | F,8 E,8) | A,,4 A,4 G,4 E,4 | F,8 E,8 | D,8 E,4 C,4 | (D,4 E,4) A,,4 A,4 | %35
w: do- mus De\- *||i, et por- ta|coe- li,|et por- ta|coe\- * li, et|
 G,4 E,4 (G,8 | F,4 E,4 F,8) | E,4 E,4 A,4 ^G,4 | (A,8 E,8) | A,,8 z4 A,,4 | D,4 ^C,4 D,8 | %41
w: por- ta coe\-||li, et por- ta|coe\- *|li, et|por- ta coe-|
 A,,16 |] %42
w: li.|

